status/48/notification-audio-volume-muted.svg

<?xml version="1.0" encoding="UTF-8" standalone="no"?>
<svg
   xmlns:dc="http://purl.org/dc/elements/1.1/"
   xmlns:cc="http://creativecommons.org/ns#"
   xmlns:rdf="http://www.w3.org/1999/02/22-rdf-syntax-ns#"
   xmlns:svg="http://www.w3.org/2000/svg"
   xmlns="http://www.w3.org/2000/svg"
   xmlns:xlink="http://www.w3.org/1999/xlink"
   version="1.2"
   width="48"
   height="48"
   id="svg2">
  <defs
     id="defs4">
    <linearGradient
       x1="45.447727"
       y1="92.539597"
       x2="45.447727"
       y2="7.0165396"
       id="ButtonShadow-9"
       gradientUnits="userSpaceOnUse"
       gradientTransform="scale(1.0058652,0.994169)">
      <stop
         id="stop3750-3"
         style="stop-color:#000000;stop-opacity:1"
         offset="0" />
      <stop
         id="stop3752-1"
         style="stop-color:#000000;stop-opacity:0.58823532"
         offset="1" />
    </linearGradient>
    <filter
       color-interpolation-filters="sRGB"
       id="filter3174-4">
      <feGaussianBlur
         stdDeviation="1.71"
         id="feGaussianBlur3176-5" />
    </filter>
    <linearGradient
       x1="45.447727"
       y1="92.539597"
       x2="45.447727"
       y2="7.0165396"
       id="ButtonShadow"
       gradientUnits="userSpaceOnUse"
       gradientTransform="scale(1.0058652,0.994169)">
      <stop
         id="stop3750-9"
         style="stop-color:#000000;stop-opacity:1"
         offset="0" />
      <stop
         id="stop3752-7"
         style="stop-color:#000000;stop-opacity:0.58823532"
         offset="1" />
    </linearGradient>
    <filter
       color-interpolation-filters="sRGB"
       id="filter3174">
      <feGaussianBlur
         stdDeviation="1.71"
         id="feGaussianBlur3176" />
    </filter>
    <linearGradient
       x1="45.447727"
       y1="92.539597"
       x2="45.447727"
       y2="7.0165396"
       id="linearGradient6176"
       xlink:href="#ButtonShadow-9"
       gradientUnits="userSpaceOnUse"
       gradientTransform="scale(1.0058652,0.994169)" />
    <linearGradient
       x1="45.447727"
       y1="92.539597"
       x2="45.447727"
       y2="7.0165396"
       id="linearGradient6178"
       xlink:href="#ButtonShadow"
       gradientUnits="userSpaceOnUse"
       gradientTransform="scale(1.0058652,0.994169)" />
  </defs>
  <metadata
     id="metadata7">
    <rdf:RDF>
      <cc:Work
         rdf:about="">
        <dc:format>image/svg+xml</dc:format>
        <dc:type
           rdf:resource="http://purl.org/dc/dcmitype/StillImage" />
        <dc:title />
      </cc:Work>
    </rdf:RDF>
  </metadata>
  <g
     transform="translate(473.00006,-641.36218)"
     id="layer1">
    <g
       transform="translate(403.27272,612.31676)"
       id="layer2"
       style="display:none">
      <rect
         width="86"
         height="85"
         rx="6"
         ry="6"
         x="5"
         y="7"
         id="rect3745"
         style="opacity:0.9;fill:url(#linearGradient6178);fill-opacity:1;fill-rule:nonzero;stroke:none;filter:url(#filter3174)" />
    </g>
    <g
       transform="translate(400,611.95312)"
       id="layer2-4"
       style="display:none">
      <rect
         width="86"
         height="85"
         rx="6"
         ry="6"
         x="5"
         y="7"
         id="rect3745-5"
         style="opacity:0.9;fill:url(#linearGradient6176);fill-opacity:1;fill-rule:nonzero;stroke:none;filter:url(#filter3174-4)" />
    </g>
    <path
       d="M 33.09375,9.5 30.8125,11.59375 C 33.81132,13.71727 35.875,18.48584 35.875,24 c 0,5.51414 -2.06368,10.28275 -5.0625,12.40625 L 33.09375,38.5 C 36.57633,35.96472 39,30.44932 39,24 39,17.55066 36.57633,12.03526 33.09375,9.5 z M 19,13.25 12.3125,20 9,20 9,28 12.3125,28 19,34.75 19,13.25 z m 9.71875,0.1875 -2.125,1.90625 C 28.52448,17.39707 29.75,20.50076 29.75,24 c 0,3.49924 -1.22552,6.60293 -3.15625,8.65625 l 2.125,1.90625 C 31.22029,32.1608 32.875,28.3615 32.875,24 c 0,-4.36152 -1.65471,-8.16078 -4.15625,-10.5625 z M 24.6875,17 22.46875,18.96875 C 23.3334,20.41419 23.875,22.15076 23.875,24 c 0,1.84922 -0.5416,3.58579 -1.40625,5.03125 L 24.6875,31 C 26.11935,29.09438 27,26.65142 27,24 27,21.34858 26.11935,18.90562 24.6875,17 z"
       transform="translate(-473.00006,641.36218)"
       id="path6945-2"
       style="opacity:0.4;color:#bebebe;fill:#4d4d4d;fill-opacity:1;fill-rule:nonzero;stroke:none;stroke-width:1.82310748;marker:none;visibility:visible;display:inline;overflow:visible;enable-background:accumulate" />
  </g>
</svg>

<svg xmlns="http://www.w3.org/2000/svg" version="1.2" width="48" height="48"><path d="M33.094 9.5l-2.282 2.094c3 2.123 5.063 6.892 5.063 12.406s-2.064 10.283-5.063 12.406l2.282 2.094C36.576 35.965 39 30.45 39 24c0-6.45-2.424-11.965-5.906-14.5zM19 13.25L12.312 20H9v8h3.313L19 34.75v-21.5zm9.72.188l-2.126 1.906C28.524 17.397 29.75 20.5 29.75 24c0 3.5-1.226 6.603-3.156 8.656l2.125 1.907c2.5-2.403 4.15-6.203 4.15-10.563 0-4.362-1.655-8.16-4.156-10.563zM24.687 17l-2.22 1.97a9.835 9.835 0 0 1 1.41 5.03 9.83 9.83 0 0 1-1.407 5.03L24.687 31A11.66 11.66 0 0 0 27 24c0-2.65-.88-5.094-2.313-7z" opacity=".4" color="#bebebe" fill="#4d4d4d" overflow="visible"/></svg>
